X:1     %Music
T:Lovely on the Water
F:http://www.folkinfo.org/songs
B:Palmer, Roy, Bushes and Briars, LLanerch, 1999
Z:Vaughan Williams
S:Mr Hilton of South Walsham, Norfolk
M:3/4     %Meter
L:1/8     %
K:C
(A,3/2B,/) |C A, D2 (CG,) |C2 A,2 A,B, |C D E2 c2 | (A2{BA}G2) 
w:As_ I walked out one_ mor-ning in the spring-time of the year_
c2 |A3/2A/ G2 (E3/2C/) |D E G,2 (A,B,) |C D E2 (DC) | A,6 |]
w:I o-ver-heard a_ sail-or boy, like_ wise a la-dy_ fair